include/images/mode_autocommit.svg

<svg height="4096" viewBox="0 0 4096 4096" width="4096" xmlns="http://www.w3.org/2000/svg"><path d="m931.0496 3807.6003c-332.0783-86.995-576.13773-341.5905-651.47598-679.6003-21.50538-96.4851-24.26181-253.8498-19.89848-1136l5.06494-1024 36.95176-99.5645c97.55219-262.84908 303.89458-469.19147 566.74366-566.74366l99.5645-36.95176 1024-5.06494c1140.6283-5.64183 1154.1254-4.64543 1364.0573 100.69915 198.4048 99.56032 370.9769 306.00704 440.4953 526.96131 35.089 111.52536 35.4474 123.2597 35.4474 1160.6644 0 1037.4046-.3584 1049.139-35.4474 1160.6645-93.2344 296.332-332.5137 521.5755-636.7313 599.3813-118.4976 30.3065-176.1669 31.9088-1118.3807 31.0732-925.6755-.8208-1001.4181-2.9708-1110.391-31.5187zm2239.5936-379.7552c123.2667-60.7005 207.8974-147.463 267.1941-273.9249l42.1627-89.9202v-1016-1016l-42.1627-89.92018c-59.3082-126.48646-143.9251-213.22568-267.2227-273.92486l-105.9418-52.15496h-1016.6728-1016.6729l-105.94174 52.15496c-123.29755 60.69918-207.91451 147.4384-267.22272 273.92486l-42.16264 89.92018v1016 1016l42.16264 89.9202c77.09362 164.4174 223.02282 284.6116 385.39766 317.4318 37.6418 7.6085 507.8039 12.6667 1044.8047 11.2408l976.3649-2.5928zm-1918.5421-324.3062c-43.178-17.3594-99.9583-105.604-100.0413-155.4783-.1043-62.6552 734.2052-1879.986 777.4346-1924.0606 31.3915-32.00536 55.0768-40 118.5056-40s87.1141 7.99464 118.5056 40c43.2294 44.0746 777.5389 1861.4054 777.4346 1924.0606-.08 52.5829-57.6872 138.354-104.9892 156.3383-141.1659 53.6712-203.6145-3.0362-317.5971-288.3989l-86.2771-216h-387.0768-387.0768l-86.2771 216c-96.3768 241.2854-145.5691 304.7365-234.8985 302.9858-28.4612-.5584-67.9021-7.509-87.6465-15.4469zm918.3443-1167.3597c-62.9449-158.3014-118.0454-287.8206-122.4454-287.8206s-59.5005 129.5192-122.4454 287.8206l-114.4453 287.8208h236.8907 236.8907z" stroke-width="16"/></svg>

<?xml version="1.0" encoding="UTF-8" standalone="no"?>
<!-- Created with Inkscape (http://www.inkscape.org/) -->

<svg
   version="1.1"
   id="svg2"
   width="4096"
   height="4096"
   viewBox="0 0 4096 4096"
   sodipodi:docname="mode_autocommit.svg"
   inkscape:version="1.2.2 (732a01da63, 2022-12-09)"
   xmlns:inkscape="http://www.inkscape.org/namespaces/inkscape"
   xmlns:sodipodi="http://sodipodi.sourceforge.net/DTD/sodipodi-0.dtd"
   xmlns="http://www.w3.org/2000/svg"
   xmlns:svg="http://www.w3.org/2000/svg">
  <defs
     id="defs6" />
  <sodipodi:namedview
     id="namedview4"
     pagecolor="#ffffff"
     bordercolor="#000000"
     borderopacity="0.25"
     inkscape:showpageshadow="2"
     inkscape:pageopacity="0.0"
     inkscape:pagecheckerboard="0"
     inkscape:deskcolor="#d1d1d1"
     showgrid="false"
     inkscape:zoom="0.1809082"
     inkscape:cx="909.30096"
     inkscape:cy="2056.2915"
     inkscape:window-width="1920"
     inkscape:window-height="921"
     inkscape:window-x="-8"
     inkscape:window-y="-8"
     inkscape:window-maximized="1"
     inkscape:current-layer="g8" />
  <g
     inkscape:groupmode="layer"
     inkscape:label="Image"
     id="g8"
     style="display:inline">
    <path
       style="display:inline;fill:#000000;stroke-width:16"
       d="M 931.0496,3807.6003 C 598.9713,3720.6053 354.91187,3466.0098 279.57362,3128 258.06824,3031.5149 255.31181,2874.1502 259.67514,1992 l 5.06494,-1024 36.95176,-99.5645 C 399.24403,605.58642 605.58642,399.24403 868.4355,301.69184 L 968,264.74008 1992,259.67514 c 1140.6283,-5.64183 1154.1254,-4.64543 1364.0573,100.69915 198.4048,99.56032 370.9769,306.00704 440.4953,526.96131 C 3831.6416,998.86096 3832,1010.5953 3832,2048 c 0,1037.4046 -0.3584,1049.139 -35.4474,1160.6645 -93.2344,296.332 -332.5137,521.5755 -636.7313,599.3813 -118.4976,30.3065 -176.1669,31.9088 -1118.3807,31.0732 -925.6755,-0.8208 -1001.4181,-2.9708 -1110.391,-31.5187 z m 2239.5936,-379.7552 c 123.2667,-60.7005 207.8974,-147.463 267.1941,-273.9249 L 3480,3064 V 2048 1032 l -42.1627,-89.92018 C 3378.5291,815.59336 3293.9122,728.85414 3170.6146,668.15496 L 3064.6728,616 H 2048 1031.3271 L 925.38536,668.15496 C 802.08781,728.85414 717.47085,815.59336 658.16264,942.07982 L 616,1032 v 1016 1016 l 42.16264,89.9202 c 77.09362,164.4174 223.02282,284.6116 385.39766,317.4318 37.6418,7.6085 507.8039,12.6667 1044.8047,11.2408 L 3064.7299,3480 Z M 1252.1011,3103.5389 c -43.178,-17.3594 -99.9583,-105.604 -100.0413,-155.4783 -0.1043,-62.6552 734.2052,-1879.986 777.4346,-1924.0606 31.3915,-32.00536 55.0768,-40 118.5056,-40 63.4288,0 87.1141,7.99464 118.5056,40 43.2294,44.0746 777.5389,1861.4054 777.4346,1924.0606 -0.08,52.5829 -57.6872,138.354 -104.9892,156.3383 -141.1659,53.6712 -203.6145,-3.0362 -317.5971,-288.3989 l -86.2771,-216 H 2048 1660.9232 l -86.2771,216 c -96.3768,241.2854 -145.5691,304.7365 -234.8985,302.9858 -28.4612,-0.5584 -67.9021,-7.509 -87.6465,-15.4469 z M 2170.4454,1936.1792 C 2107.5005,1777.8778 2052.4,1648.3586 2048,1648.3586 c -4.4,0 -59.5005,129.5192 -122.4454,287.8206 L 1811.1093,2224 H 2048 2284.8907 Z"
       id="path5270" />
  </g>
</svg>
